packages/foundations/assets/icons/functional/images/transportation/bike_trailer_12.svg

<svg width="12" height="12" viewBox="0 0 12 12" fill="none" xmlns="http://www.w3.org/2000/svg">
<g clip-path="url(#clip0_232_481)">
<path fill-rule="evenodd" clip-rule="evenodd" d="M2.4873 2.9144C2.55458 2.90802 2.65648 2.91967 2.79299 2.94937C2.9295 2.97907 3.84625 3.20562 5.54324 3.62903C5.59494 3.6418 5.64471 3.66141 5.69124 3.68732C6.78208 4.29484 7.63337 4.93331 8.24437 5.60912C8.39288 5.77338 8.43743 6.00404 8.36586 6.20907L7.64356 7.63457C7.54175 7.83376 7.33758 7.95978 7.11389 7.96149L5.30342 7.91659C5.18317 8.58231 4.60075 9.08729 3.90039 9.08729C3.12643 9.08729 2.49651 8.47062 2.47516 7.70183L1.90347 7.65797C1.61911 7.63618 1.38937 7.41724 1.35395 7.13425C1.25326 6.37418 1.20207 5.93796 1.20038 5.82561C1.19868 5.71325 1.2343 5.11889 1.30725 4.04253C1.3451 3.41105 1.86476 2.92298 2.4873 2.9144ZM10.7825 6.91598C10.8571 7.2145 10.6859 7.5651 10.3459 7.64359L9.14591 7.94359C8.82443 8.02396 8.49867 7.8285 8.4183 7.50703C8.34367 7.20851 8.51112 6.87454 8.85486 6.77942L10.0549 6.47942C10.3763 6.39905 10.7021 6.59451 10.7825 6.91598ZM2.34743 4.42536L2.34354 5.42143C2.34354 5.70309 2.57188 5.93143 2.85354 5.93143C3.11354 5.93143 3.3281 5.73687 3.35957 5.4854L3.36354 5.1175L4.90254 5.4409L5.71692 5.98551C5.93158 6.12899 6.25274 6.0845 6.41314 5.8656C6.57354 5.6467 6.52688 5.34624 6.33869 5.17983L5.38757 4.53848C5.36351 4.5224 5.30404 4.49738 5.20916 4.46341L2.95854 3.9899C2.6627 3.92766 2.38337 4.13419 2.34743 4.42536Z" fill="#1A1C1F"/>
</g>
<defs>
<clipPath id="clip0_232_481">
<rect width="12" height="12" fill="white"/>
</clipPath>
</defs>
</svg>

<svg xmlns="http://www.w3.org/2000/svg" width="12" height="12" fill="none"><g clip-path="url(#a)"><path fill="#1A1C1F" fill-rule="evenodd" d="M2.487 2.914q.102-.009.306.035t2.75.68a.6.6 0 0 1 .148.058c1.091.608 1.942 1.246 2.553 1.922a.6.6 0 0 1 .122.6l-.722 1.426a.6.6 0 0 1-.53.326l-1.81-.044a1.426 1.426 0 0 1-2.829-.215l-.572-.044a.6.6 0 0 1-.549-.524q-.15-1.14-.154-1.308-.002-.17.107-1.783a1.2 1.2 0 0 1 1.18-1.129m8.296 4.002a.6.6 0 0 1-.437.728l-1.2.3a.6.6 0 0 1-.291-1.165l1.2-.3a.6.6 0 0 1 .728.437m-8.436-2.49-.003.995a.51.51 0 0 0 1.016.064l.004-.368 1.539.324.814.545a.523.523 0 0 0 .696-.12.516.516 0 0 0-.074-.686l-.951-.642a1 1 0 0 0-.179-.075L2.96 3.99a.51.51 0 0 0-.612.435" clip-rule="evenodd"/></g><defs><clipPath id="a"><path fill="#fff" d="M0 0h12v12H0z"/></clipPath></defs></svg>
